X:1
T:Sonate No. 14, Moonlight 1 st Movement Opus 27 No. 2
C:Ludwig van Beethoven (1770–1827)
%%pagewidth 21.01cm
%%leftmargin 1.00cm
%%rightmargin 1.01cm
%%score { ( 1 2 ) | ( 3 4 ) }
Q:1/4=44
M:4/4
K:E
V:1 treble nm="Piano"
V:2 treble
V:3 bass
V:4 bass
V:1
L:1/8
K:E
"^Adagio sostenuto. Si deve suonare tutto questo pezzo delicatissimamente e senza sordini""_sempre pianissimo e senza sordini" (3G,CE (3G,CE (3G,CE (3G,CE |  (3G,CE (3G,CE (3G,CE (3G,CE | (3(A,CE (3A,CE) (3(A,=DF (3A,DF) |  (3(G,^B,F (3G,CE (3G,C^D (3F,B,D) | z4 z2 G>G | G6 G>G | (G4 A4 |  G4 F2 B2) | E2 z2 z4 | z4 z2 =G>G | =G6 G>G | (=G6 ^F2) | F4 =G2 E2 | F4 F4 | B,2 z2 z2 (B2 |  =c6 ^A2) | B6 (B2 | =c6 ^A2) | B4 B4 | B4 =A4 | =G4 F4 | C4 C2 C2 |  F,2 z2 z2 c>c | c6 c>c |"_cresc."!<(! (c4 ^B2 c2) | d6 d2!<)! | "_dim."!mp!!>(! (e4 d2 c2)!>)! | (3^B^B,D!<(! G2!<)! =A2 F2 |  (3z ^B,D!<(! (G,2!<)! A,2 F,2) | (3E,EG!<(! (c2!<)! e2 c2) |  (3z E,G,!<(! (C2!<)! E2 C2) | (3(D,A,F, (3^B,A,D (3B,FD (3AF^B) |  (3(E,CG, (3ECG (3EcG (3ecG) | (3(C^^FE (3^AFc (3Aec (3^^fe^a) |  (3(^F^B=A (3dB^f (3d=af (3^bad') | (3(^bfa (3df^B (3dAB (3FAD |  (3F^B,D (3A,^B,F,) (3(A,D,F,(3 z F,A,) | (3^B,,F,G, (3A,G,F, (3D,F,A, (3C,F,A, |  (3^B,,F,G, (3A,G,F, (3=D,F,A, (3C,F,A, |"_dim."!>(! (3^B,,F,G, (3A,G,F, (3C,E,C (3C,E,C |  (3D,A,C (3D,A,C (3D,G,^B, (3D,F,B,!>)! | x4 x2  G>G | G6 G>G | (G4 A4 |  G4 F2 B2) | E2 z2 z2 B>B | B6 B>B |"_cresc."!<(! (B4 ^B2 c2)!<)! | (d4 e4 | =d4 ^B4) |  c6 (c2 |!<(! =d6!<)! ^B2) | c6 (c2 |!<(! =d6!<)! ^B2) | c4 c4 | =B6 B2 | A2 A2 G2 G2 | "_cresc." (F4 G2 A2) | G4 G4 |  (3E,G,C (3G,CE (3G,CE (3G,CE |  (3G,DF (3G,DF (3G,DF (3G,DF | !<(! (3(G,=EC (3GEc (3Gec (3gec)!<)! | !>(! (3(^BdA (3BFA (3DFA,- (3A,G,F,)!>)! |  (3([E,C]EC (3GEc (3Gec (3gec) | !>(! (3(^BdA (3BFA (3DFA,- (3A,G,F,) | "_dim." (3[E,C](G,C (3ECG,) (3z (E,G, (3CG,E,) |  (3z (C,E, (3G,E,C,) z4!>)! | z4 C4 | !fermata!C8 |]
V:2
L:1/8
K:E
 x8 | x8 | x8 | x8 |!mf!(3(E,G,C) (3(G,CE) (3(G,CE) (3G,CE |  (3G,DF (3G,DF (3G,DF (3G,DF |  (3G,CE (3G,CE (3A,CF (3A,CF |  (3G,B,E (3G,B,E (3A,B,D (3A,B,D |  (3G,B,E (3G,B,E (3G,B,E (3G,B,E |  (3=G,B,E (3G,B,E (3G,B,E (3G,B,E |  (3=G,B,=F (3G,B,F (3G,B,F (3G,B,F |  (3=G,=CE (3G,B,E (3G,^CE (3^F,^CE |  (3F,B,=D (3F,B,D (3=G,B,C (3E,B,C | (3F,B,=D (3F,B,D (3F,^A,C (3F,A,C |  (3B,=DF (3B,DF (3B,^DF (3B,DF | (3B,E=G (3B,EG (3B,EG (3B,EG |  (3B,^DF (3B,DF (3B,DF (3B,DF | (3B,E=G (3B,EG (3B,EG (3B,EG | (3B,DF (3B,DF (3B,=D^E (3B,DE |  (3B,C^G (3B,CG (3=A,CF (3A,CF | (3=G,B,=D (3G,B,D (3F,A,^D (3F,A,D |  (3C,F,A, (3C,F,A, (3C,F,G, (3C,^E,G, | (3F,A,C (3A,CF (3CFA (3CFA |  (3CGB (3CGB (3CGB (3CGB | (3CFA (3CFA (3^B,FA (3CFA | (3DFG (3DFG (3DFG (3DFG |  (3EGc (3EGc (3DFA (3CE^A | x2 (3G^B,D (3A!>(!B,D (3FB,!>)!D |  x2 (3G,^B,D (3A,!>(!B,D (3F,B,!>)!D |  x2 (3cEG (3e!>(!EG (3cE!>)!G | x2 (3CE,G, (3E!>(!E,G, (3CE,!>)!G, | x8 | x8 | x8 |  x8 | x8 | x4 (3:2:2A, (D,2 (3:2:1C,3) | ^B,,4 (D,2 C,2) | ^B,,4 (=D,2 C,2) | ^B,,4 x4 | x8 |  (3E,G,C (3G,CE (3G,CE (3G,CE |  (3G,DF (3G,DF (3G,DF (3G,DF |  (3G,CE (3G,CE (3A,CF (3A,CF |  (3G,B,E (3G,B,E (3A,B,D (3A,B,D |  (3G,B,E (3B,EG (3B,EG (3B,EG | (3B,FA (3B,FA (3B,FA (3B,FA |  (3B,EG (3B,EG (3^B,FG (3CEG | (3DFG (3DFG (3EGc (3EGc | (3=DFA (3DFA (3^B,FG (3B,FG |  (3CEG (3CEG (3C^EG (3CEG | (3CFA (3CFA (3C!>(!FA (3CFA!>)! | (3C^EG (3CEG (3CEG (3CEG |  (3CFA (3CFA (3C!>(!FA (3CFA!>)! | (3C^EG (3CEG (3CFA (3CFA | (3=B,FA (3B,FA (3B,FA (3B,EG |  (3A,EG (3A,DF (3G,DF (3G,CE | (3F,CD (3F,CD (3G,CD (3A,CD |  (3G,CE (3G,CE (3F,^B,D (3F,B,D | C2 x6 | x8 | x8 | x6 ^B,2 | x8 |  x6 ^B,2 | x8 | x8 | x4 [E,G,]4 | [E,G,]8 |]
V:3
L:1/4
K:E
 [C,,C,]4 | [B,,,B,,]4 | [A,,,A,,]2 [F,,,F,,]2 | [G,,,G,,]2 [G,,,G,,]2 | [C,,G,,C,]4 |  [^B,,,G,,^B,,]4 | ([C,,C,]2 [F,,,F,,]2) | [B,,,B,,]2 [B,,,B,,]2 | [E,,E,]4 | [E,,E,]4 |  [=D,,=D,]4 | ([=C,,=C,] [B,,,B,,] [^A,,,^A,,]2) | ([B,,,B,,]2 E,, =G,,) | F,,2 [F,,,F,,]2 |  [B,,,B,,]4- |!<(! ([B,,,B,,] [E,,E,]!<)!!>(! [=G,,=G,] [E,,E,])!>)! | [B,,,B,,]4- | !<(! ([B,,,B,,] [E,,E,]!<)!!>(! [=G,,=G,] [E,,E,])!>)! | [B,,,B,,]2 [^G,,,^G,,]2 |  [^E,,,^E,,]2 [F,,,F,,]2 | [B,,,B,,]2 [^B,,,^B,,]2 | C,,2 C,,2 | [F,,,C,,F,,]4 | [^E,,C,^E,]4 |  ([F,,F,]2 [D,,D,] [C,,C,]) | [^B,,,G,,^B,,]3 [B,,,G,,B,,] |  [C,,G,,C,]2 ([F,,,F,,] [^^F,,,^^F,,]) | [G,,,G,,]4 | [G,,,G,,]4 | [G,,,G,,]4 | [G,,,G,,]4 |  [G,,,G,,]4 | [G,,,G,,]4 | [G,,,G,,]4 | [G,,,G,,]4- | [G,,,G,,]4- | [G,,,G,,]4 | [G,,,G,,]4 |  [G,,,G,,]4 | [G,,,G,,]2 [A,,,A,,]2 | [F,,,F,,]2 [G,,,G,,]2 |[C,,G,,C,]4 | [^B,,,G,,^B,,]4 |  ([C,,C,]2 [F,,,F,,]2) | [B,,,B,,]2 [B,,,B,,]2 | [E,,E,]4 | [D,,D,]4 | [E,,E,]2 [D,,D,] [C,,C,] |  ([^B,,,G,,^B,,]2 [C,,G,,C,]2) | ([F,,,F,,]2 [G,,,G,,]2) | [C,,C,]4- |  ([C,,C,] [F,,F,] [A,,A,] [F,,F,]) | [C,,C,]4- | ([C,,C,] [F,,F,] [A,,A,] [F,,F,]) |  [C,,C,]2 (([F,,,F,,]2 | [D,,D,]3)) [E,,E,] | ([C,,C,] [D,,D,] [^B,,,^B,,] [C,,C,]) |  ([A,,,A,,]2 [G,,,G,,] [F,,,F,,]) | [G,,,G,,]2 [G,,,G,,]2 | G,,3 G,,/>G,,/ | G,,3 G,,/>G,,/ |  G,,3 G,,/>G,,/ | G,,3 G,,/>G,,/ |!<(! G,,3 G,,/>G,,/!<)! |!>(! G,,3 G,,/>G,,/!>)! | G,,2 C,2 |  G,,2 (3(G,,/C,/G,,/ (3E,,/G,,/E,,/) | C,,2 [C,,G,,C,]2 | "_Attacca subito il seguente" !fermata![C,,G,,C,]4 |]
V:4
L:1/4
K:E
 x4 | x4 | x4 | x4 | x4 | x4 | x4 | x4 | x4 | x4 | x4 | x4 | x4 | x4 | x4 | x4 | x4 | x4 |  x4 | x4 | x4 | x4 | x4 | x4 | x4 | x4 | x4 | x4 | x4 | x4 | x4 | x4 | x4 | x4 | x4 | x4 |  x4 | x4 | x4 | x4 | x4 | x4 | x4 | x4 | x4 | x4 | x4 | x4 | x4 | x4 | x4 | x4 | x4 | x4 |  x4 | x4 | x4 | x4 | x4 | C,,4 | ^B,,,4 | C,,4 | G,,,4 | C,,4 | G,,,4 | C,,4- | C,,2 x2 | x4 |  x4 |]